X: 67
T:Missa L'homme arm\'e sexti toni / Gloria
N: Derived from Jos0602b-Missa_Lhomme_arme_sexti_toni-Gloria.krn
C: Josquin des Prez
%%abc-version 2.0
%%abcx-abcm2ps-target-version 5.9.1 (29 Sep 2008)
%%abc-creator hum2abc beta
%%abcx-conversion-date 2019/02/12 16:15:41
%%abc-edited-by Jesse Rodin
%%abc-edited-by Jesse Rodin; Victoria Chang 2011/09/04
%%abcx-initial-encoding-date 2011/09/04/
%%humdrum-veritas 3306189152
%%humdrum-veritas-data 1958434794
%%linebreak <none>
%%barnumbers 0
L: 1/4
M: 3/1
Q: 1/2=120
%%staves [1 2 3 4]
V: 1 clef=treble
V: 2 clef=treble-8
V: 3 clef=treble-8
V: 4 clef=bass
K: F
[V:1] F,8A,2B,2 | 
[V:2] F8F4 | 
[V:3] z12 | 
[V:4] z12 | 
[V:1] C4D6CB, | 
[V:2] F4B6A2 | 
[V:3] z12 | 
[V:4] z12 | 
[V:1] C2F2E2D4CB, | 
[V:2] A4G2F2G4 | 
[V:3] z12 | 
[V:4] z12 | 
[V:1] A,4z2C2C2C2 | 
[V:2] F8z2c2 | 
[V:3] z12 | 
[V:4] z12 | 
[V:1] F,3G,A,F,C3DEC | 
[V:2] c2c2F3GAFc2- | 
[V:3] z12 | 
[V:4] z12 | 
[V:1] G3FGED2F3E | 
[V:2] cBcAG2B3ABG | 
[V:3] z12 | 
[V:4] z12 | 
[V:1] FDC3B,CA,G,2B,2- | 
[V:2] F3EFDC2_E3D | 
[V:3] z12 | 
[V:4] z12 | 
[V:1] B,A,B,A,F,4G,4 | 
[V:2] _ECB,4F4E2 | 
[V:3] z12 | 
[V:4] z12 | 
[V:1] F,8z4 | 
[V:2] F6EFD4- | 
[V:3] F12- | 
[V:4] F,,3G,,A,,2B,,3C,D,E, | 
[V:1] A,6B,2C4 | 
[V:2] D2F4EDC4 | 
[V:3] F12 | 
[V:4] F,2D,4C,B,,A,,4 | 
[V:1] D4D2D2D2D2 | 
[V:2] G4G2G2G2G2 | 
[V:3] B12- | 
[V:4] G,,4G,,2G,,2G,,2G,,2 | 
[V:1] D6F4ED | 
[V:2] G6F2D2F2- | 
[V:3] B8A4 | 
[V:4] G,,6D,6 | 
[V:1] C4C2C2C2C2 | 
[V:2] F2EDE4E2E2 | 
[V:3] A12- | 
[V:4] A,,4A,,2A,,2A,,2A,,2 | 
[V:1] C6_E4DC | 
[V:2] E2E2E2C2_E4- | 
[V:3] A8G4 | 
[V:4] A,,6C,6 | 
[V:1] B,4B,2B,2B,2B,2 | 
[V:2] E2DCD4D2D2 | 
[V:3] G12- | 
[V:4] G,,4G,,2G,,2G,,2G,,2 | 
[V:1] B,6D4CB, | 
[V:2] D2D4B,2D4 | 
[V:3] G8F4 | 
[V:4] G,,6B,,6 | 
[V:1] A,4z2D4CB, | 
[V:2] C2F4D2D4 | 
[V:3] F12- | 
[V:4] F,,6B,,6 | 
[V:1] C4z2F4ED | 
[V:2] z2A4F2F4 | 
[V:3] F8z4 | 
[V:4] A,,6D,6 | 
[V:1] E4z2A4GF | 
[V:2] z2c4A2A4 | 
[V:3] c12- | 
[V:4] C,6F,6 | 
[V:1] G2A4F4ED | 
[V:2] G2F2A6B2 | 
[V:3] c4F8 | 
[V:4] E,2F,3E,D,C,D,4 | 
[V:1] E4z2E3FG2 | 
[V:2] c12 | 
[V:3] z12 | 
[V:4] C,12 | 
[V:1] C3DE2A,3B,C2 | 
[V:2] z2c3de2A3B | 
[V:3] z12 | 
[V:4] z12 | 
[V:1] F,3G,A,B,C3DEF | 
[V:2] c2F3GABc4- | 
[V:3] z12 | 
[V:4] z12 | 
[V:1] GAB4A4G2 | 
[V:2] c2d3cA2B4 | 
[V:3] z12 | 
[V:4] z12 | 
[V:1] A2c3BA2G2F2 | 
[V:2] A4z2c3BA2 | 
[V:3] c12- | 
[V:4] z2A,3G,F,2E,2F,2 | 
[V:1] E2A,2G,2C3B,A,2 | 
[V:2] G2F2E2A2G2c2- | 
[V:3] c12- | 
[V:4] C,2z2C,3D,E,2F,2 | 
[V:1] G,2F,2E,2F,G,A,B,CD | 
[V:2] cBA2G2F3EC2 | 
[V:3] c12 | 
[V:4] E,2F,2C,2F,,3G,,A,,B,, | 
[V:1] EFG4F4E2 | 
[V:2] G4z2c6 | 
[V:3] c2B4A2G4 | 
[V:4] C,D,_E,4F,2C,4 | 
[V:1] F2F,3G,A,B,C2D2 | 
[V:2] A3Bc4z4 | 
[V:3] F12- | 
[V:4] F,,12- | 
[V:1] A,12 | 
[V:2] C4D2C2F4 | 
[V:3] F12 | 
[V:4] F,,8z4 | 
[V:1] z12 | 
[V:2] E4z2c3BA2 | 
[V:3] z12 | 
[V:4] C,4D,2C,2F,4 | 
[V:1] z12 | 
[V:2] G2C3DEFGABc | 
[V:3] z12 | 
[V:4] E,4C,3D,E,F,D,2 | 
[V:1] z12 | 
[V:2] AGB4A4G2 | 
[V:3] z12 | 
[V:4] C,2D,2A,,4B,,4 | 
[V:1] z2C3DEFGABc | 
[V:2] A4c6d2 | 
[V:3] z12 | 
[V:4] A,,8z4 | 
[V:1] AGB4A4G2 | 
[V:2] c2d2A4B4 | 
[V:3] z12 | 
[V:4] z12 | 
[V:1] A4z4z2c2- | 
[V:2] A2c3BG2A3G | 
[V:3] c12- | 
[V:4] z2A,,3B,,C,2F,,2A,,2- | 
[V:1] cBG2A3GE4 | 
[V:2] E4F4G4 | 
[V:3] c12 | 
[V:4] A,,B,,C,2F,,4C,4 | 
[V:1] z2F3EC2D3C | 
[V:2] A2F3GA2D3E | 
[V:3] F12- | 
[V:4] z2D,3C,A,,2B,,3A,, | 
[V:1] A,4z4F4 | 
[V:2] F2C2c6c2 | 
[V:3] F12 | 
[V:4] F,,8z4 | 
[V:1] E2G3FD3F2E | 
[V:2] c3BG2B3AFG | 
[V:3] z12 | 
[V:4] C,6B,,2D,3E, | 
[V:1] C4z4z4 | 
[V:2] ABc2BA/B/A4G2 | 
[V:3] z12 | 
[V:4] F,3E,D,2C,2B,,3A,,/G,,/ | 
[V:1] C4B,2A,4G,2 | 
[V:2] A4G2A2B3A | 
[V:3] z12 | 
[V:4] F,,4z4z4 | 
[V:1] A,4G,2A,2B,3A, | 
[V:2] F2c2BA/B/A4G2 | 
[V:3] z12 | 
[V:4] z12 | 
[V:1] F,2C2B,2A,4G,2 | 
[V:2] A4z4D4 | 
[V:3] z12 | 
[V:4] F,3E,D,2C,2B,,4 | 
[V:1] A,4z2A,3B,CD | 
[V:2] E6F6 | 
[V:3] c12- | 
[V:4] A,,8F,,4 | 
[V:1] EFG4FED4 | 
[V:2] G12 | 
[V:3] c4B8 | 
[V:4] C,4G,,8 | 
[V:1] C4F,3G,A,B,CD | 
[V:2] C2F3GABc4 | 
[V:3] A12- | 
[V:4] A,,4z2F,,3G,,A,,B,, | 
[V:1] E2F2G2B3A/G/B2 | 
[V:2] z2F2_ECG3F_ED | 
[V:3] A4G8 | 
[V:4] C,2D,2_E,4_E,,4 | 
[V:1] A2c3BAGA2G2- | 
[V:2] C2F2=E2F2CDEF | 
[V:3] F4z2c3BG2 | 
[V:4] F,,3G,,A,,2F,,2C,3B,, | 
[V:1] GF/E/DCDCF4E2 | 
[V:2] G2F4c6 | 
[V:3] B3AF2A2G4 | 
[V:4] G,,2B,,3A,,F,,2C,4 | 
[V:1] F12- | 
[V:2] A3Bc2C2D4 | 
[V:3] F12- | 
[V:4] F,,12- | 
[V:1] F12 ||  
[V:2] C12 ||  
[V:3] F12 ||  
[V:4] F,,12 ||  
[V:1] [M:2/1]F8 | 
[V:2] [M:2/1]F6G2 | 
[V:3] [M:2/1]z8 | 
[V:4] [M:2/1]z8 | 
[V:1] C4F4- | 
[V:2] A4A4 | 
[V:3] z8 | 
[V:4] z8 | 
[V:1] F4F4- | 
[V:2] B4A2B2- | 
[V:3] z8 | 
[V:4] z8 | 
[V:1] F2GAB4 | 
[V:2] BAGFG4 | 
[V:3] z8 | 
[V:4] z8 | 
[V:1] A4G2A2- | 
[V:2] F2c3BAG | 
[V:3] z8 | 
[V:4] z8 | 
[V:1] AGFED2C2 | 
[V:2] F4G2A2- | 
[V:3] z8 | 
[V:4] z8 | 
[V:1] F6E2 | 
[V:2] AGFEDCc2- | 
[V:3] z8 | 
[V:4] z8 | 
[V:1] D4C4 | 
[V:2] c2=B2c4 | 
[V:3] z8 | 
[V:4] z8 | 
[V:1] z4F4- | 
[V:2] z4c4 | 
[V:3] z4F4 | 
[V:4] F,,8 | 
[V:1] F4F4 | 
[V:2] c4d4- | 
[V:3] F4F4 | 
[V:4] F,,4B,,4- | 
[V:1] F4G4 | 
[V:2] d4D4 | 
[V:3] D6CB, | 
[V:4] B,,4B,,4 | 
[V:1] A4B4- | 
[V:2] E2F2G4- | 
[V:3] C4D4 | 
[V:4] A,,4G,,4- | 
[V:1] B2AGA4 | 
[V:2] G4C4 | 
[V:3] E4F4 | 
[V:4] G,,4F,,4 | 
[V:1] z8 | 
[V:2] z4c4 | 
[V:3] z2F2E2F2- | 
[V:4] z8 | 
[V:1] z8 | 
[V:2] c4c4 | 
[V:3] F2EDC2F2- | 
[V:4] z8 | 
[V:1] z8 | 
[V:2] d4d4 | 
[V:3] FEDCB,2B2- | 
[V:4] z8 | 
[V:1] z8 | 
[V:2] GABcd2c2- | 
[V:3] BAGFB2A2- | 
[V:4] z8 | 
[V:1] z8 | 
[V:2] c2B2A4 | 
[V:3] A2G4^F2 | 
[V:4] z8 | 
[V:1] z8 | 
[V:2] G8 | 
[V:3] G8 | 
[V:4] z8 | 
[V:1] z4G4- | 
[V:2] z4E4- | 
[V:3] z4c4- | 
[V:4] z4C,4- | 
[V:1] G4G4 | 
[V:2] E4E4 | 
[V:3] c4c4 | 
[V:4] C,4C,4 | 
[V:1] A6GF | 
[V:2] F3EDCF2- | 
[V:3] c4z2c2- | 
[V:4] F,,8 | 
[V:1] A4z2G2- | 
[V:2] F2EDC4 | 
[V:3] c2c2c2c2 | 
[V:4] z8 | 
[V:1] G2G2G2G2 | 
[V:2] z8 | 
[V:3] c4C3D | 
[V:4] z8 | 
[V:1] G6F2- | 
[V:2] z8 | 
[V:3] EFGABcd2- | 
[V:4] z8 | 
[V:1] F2E2D4 | 
[V:2] z8 | 
[V:3] d2c4=B2 | 
[V:4] z8 | 
[V:1] C6B,2 | 
[V:2] C8- | 
[V:3] c3BA2G2 | 
[V:4] z4C,4- | 
[V:1] A,2G,2C4 | 
[V:2] C4_E4- | 
[V:3] c4z2c2- | 
[V:4] C,2C,2C,2C,2 | 
[V:1] z2C4F,2 | 
[V:2] E2DC_E2D2- | 
[V:3] cBG2A2BA | 
[V:4] C,6B,,2- | 
[V:1] G,2A,2B,4 | 
[V:2] D2C4B,2 | 
[V:3] GFF4E2 | 
[V:4] B,,2A,,2G,,4 | 
[V:1] A,8- | 
[V:2] C8 | 
[V:3] F8 | 
[V:4] F,,8 | 
[V:1] A,8 | 
[V:2] z4c4- | 
[V:3] z2D2C2F2- | 
[V:4] z8 | 
[V:1] z8 | 
[V:2] c4F4 | 
[V:3] FGABc2F2- | 
[V:4] z8 | 
[V:1] z8 | 
[V:2] c6BA | 
[V:3] F2EDC3D | 
[V:4] z8 | 
[V:1] z8 | 
[V:2] G3ABcd2- | 
[V:3] EFG4F2 | 
[V:4] z8 | 
[V:1] z8 | 
[V:2] dcdB_e2d2- | 
[V:3] G6F2- | 
[V:4] z8 | 
[V:1] z8 | 
[V:2] dcc4B2 | 
[V:3] F2E2D4 | 
[V:4] z8 | 
[V:1] z8 | 
[V:2] c2A2G2c2- | 
[V:3] C8 | 
[V:4] z8 | 
[V:1] z4z2A,2- | 
[V:2] cBAGF4 | 
[V:3] z4c4 | 
[V:4] F,8 | 
[V:1] A,2A,2G,2C2- | 
[V:2] z4C4- | 
[V:3] c6BA | 
[V:4] F,4E,4- | 
[V:1] C2B,A,G,2C2- | 
[V:2] C8 | 
[V:3] G4G4 | 
[V:4] E,4E,4 | 
[V:1] C4D2F2- | 
[V:2] F3GA2F2 | 
[V:3] A4F4- | 
[V:4] F,4D,4- | 
[V:1] F2EDE4 | 
[V:2] A3Bc4 | 
[V:3] F4G4 | 
[V:4] D,4C,4 | 
[V:1] z2A4A2 | 
[V:2] z4F4 | 
[V:3] z8 | 
[V:4] z8 | 
[V:1] G2F2c3B | 
[V:2] E2F4F2 | 
[V:3] z8 | 
[V:4] z8 | 
[V:1] G2F2B4 | 
[V:2] E2F2G4 | 
[V:3] z8 | 
[V:4] z8 | 
[V:1] A3GFED2- | 
[V:2] F4z4 | 
[V:3] c3BAGB2- | 
[V:4] z8 | 
[V:1] D2C2B,4 | 
[V:2] z8 | 
[V:3] B2A4G2 | 
[V:4] z8 | 
[V:1] A,8 | 
[V:2] z2c3BAG | 
[V:3] A3Bc4 | 
[V:4] F,8 | 
[V:1] z8 | 
[V:2] F2A2G4 | 
[V:3] z4z2C2- | 
[V:4] F,4E,4- | 
[V:1] z8 | 
[V:2] C4z4 | 
[V:3] CDEFG2c2- | 
[V:4] E,8 | 
[V:1] z4F4 | 
[V:2] A6GF | 
[V:3] cBAGF4- | 
[V:4] F,4D,4- | 
[V:1] F4E3F | 
[V:2] A2B2c4 | 
[V:3] F4G4 | 
[V:4] D,4C,4 | 
[V:1] G2A2G2A2- | 
[V:2] z4C4 | 
[V:3] z8 | 
[V:4] z8 | 
[V:1] A2F2G2A2 | 
[V:2] F4E2F2- | 
[V:3] z8 | 
[V:4] z8 | 
[V:1] c3BAGB2- | 
[V:2] FGABc2d2- | 
[V:3] z8 | 
[V:4] z8 | 
[V:1] B2A4G2 | 
[V:2] d2A2B4 | 
[V:3] z8 | 
[V:4] z8 | 
[V:1] A8 | 
[V:2] A8 | 
[V:3] c6BA | 
[V:4] z4F,4 | 
[V:1] z8 | 
[V:2] z8 | 
[V:3] B2cd_e2d2- | 
[V:4] G,8 | 
[V:1] z8 | 
[V:2] z8 | 
[V:3] dcBAG2c2- | 
[V:4] F,4E,4 | 
[V:1] z4F4 | 
[V:2] z4d4 | 
[V:3] c2BAB4 | 
[V:4] D,8 | 
[V:1] G8 | 
[V:2] _e6dc | 
[V:3] _E8 | 
[V:4] C,8 | 
[V:1] F4E4 | 
[V:2] dcBAG2A2 | 
[V:3] z8 | 
[V:4] z8 | 
[V:1] D8 | 
[V:2] B2c2G4 | 
[V:3] z4B4 | 
[V:4] z8 | 
[V:1] C6B,A, | 
[V:2] z4C4 | 
[V:3] c8 | 
[V:4] z8 | 
[V:1] G,3F,F4- | 
[V:2] E4F4 | 
[V:3] B4A4 | 
[V:4] z8 | 
[V:1] F4E4 | 
[V:2] C8 | 
[V:3] G8 | 
[V:4] z8 | 
[V:1] F8 | 
[V:2] c8 | 
[V:3] F8- | 
[V:4] z8 | 
[V:1] [M:3/1]F8F4 | 
[V:2] [M:3/1]A6B2c4 | 
[V:3] F12 | 
[V:4] [M:3/1]F,,8F,,4 | 
[V:1] F8G4 | 
[V:2] F2B4A2G2F2 | 
[V:3] [M:3/1]D8D4 | 
[V:4] B,,8B,,4 | 
[V:1] A4B8 | 
[V:2] F8E4 | 
[V:3] C4B,8 | 
[V:4] A,,4G,,8 | 
[V:1] A8z4 | 
[V:2] F8z4 | 
[V:3] C8z4 | 
[V:4] F,,8z4 | 
[V:1] G4G4G4 | 
[V:2] E4E4E4 | 
[V:3] c4c4c4 | 
[V:4] C,4C,4C,4 | 
[V:1] A8z4 | 
[V:2] F8z4 | 
[V:3] c8z4 | 
[V:4] F,,8z4 | 
[V:1] G8F4 | 
[V:2] z12 | 
[V:3] C8D4 | 
[V:4] z12 | 
[V:1] E4D8 | 
[V:2] c8B4 | 
[V:3] C4G8 | 
[V:4] z12 | 
[V:1] C8D4 | 
[V:2] A4G8 | 
[V:3] C8z4 | 
[V:4] C,8B,,4 | 
[V:1] C4D6E2 | 
[V:2] C4G8 | 
[V:3] c8B4 | 
[V:4] A,,4G,,8 | 
[V:1] F4G4A4- | 
[V:2] C4E4D2C2 | 
[V:3] A4G6F2 | 
[V:4] F,,4E,,4F,,4- | 
[V:1] A4B8 | 
[V:2] C8B,4 | 
[V:3] F8E4 | 
[V:4] F,,4G,,8 | 
[V:1] [M:2/1]A4c4- | 
[V:2] [M:2/1]C8 | 
[V:3] [M:2/1]F6ED | 
[V:4] [M:2/1]F,,6G,,2 | 
[V:1] c2B2G4 | 
[V:2] c6BA | 
[V:3] C2D2E2F2 | 
[V:4] A,,2B,,2C,2D,2 | 
[V:1] z2A4GF | 
[V:2] G2F2A4 | 
[V:3] G2A2F4 | 
[V:4] E,2F,4D,2 | 
[V:1] G4E2F2- | 
[V:2] G2E2G2F2 | 
[V:3] z2c4A2 | 
[V:4] E,2C,4D,2- | 
[V:1] F2EDE4 | 
[V:2] D2F2E2C2 | 
[V:3] B4G2A2- | 
[V:4] D,2B,,2C,2A,,2- | 
[V:1] C2D4CB, | 
[V:2] E2D2B,2D2 | 
[V:3] A2F2G4 | 
[V:4] A,,2B,,4G,,2 | 
[V:1] C4A,2B,2- | 
[V:2] C2c4BA | 
[V:3] E2F4D2 | 
[V:4] A,,2F,,4G,,2- | 
[V:1] B,2A,G,A,2C2- | 
[V:2] G4F4 | 
[V:3] _E4C4- | 
[V:4] G,,2E,,2F,,4 | 
[V:1] C2B,A,G,4 | 
[V:2] E8- | 
[V:3] C4C4 | 
[V:4] C,8 | 
[V:1] C8 | 
[V:2] E8 | 
[V:3] C8 | 
[V:4] z8 | 
[V:1] z8 | 
[V:2] z2c3BAG | 
[V:3] z8 | 
[V:4] C,3B,,A,,G,,F,,2 | 
[V:1] z8 | 
[V:2] FEDCEFG2- | 
[V:3] z8 | 
[V:4] A,,2B,,2C,4 | 
[V:1] z8 | 
[V:2] G2F4E2 | 
[V:3] z8 | 
[V:4] F,,4G,,4 | 
[V:1] z2c3BAG | 
[V:2] F4c4- | 
[V:3] c3BAGF2 | 
[V:4] F,,4z2F,2- | 
[V:1] FEDCEFG2- | 
[V:2] c2B2G2c2 | 
[V:3] A2B2c4 | 
[V:4] F,2G,2E,2C,2 | 
[V:1] G2F4E2 | 
[V:2] A2B2c4- | 
[V:3] F4G4 | 
[V:4] D,4C,4 | 
[V:1] F8- | 
[V:2] c2d4cB | 
[V:3] F8- | 
[V:4] A,,2B,,4A,,G,, | 
[V:1] F8- | 
[V:2] c2d2c2d2 | 
[V:3] F8- | 
[V:4] F,,8- | 
[V:1] F8 |]  
[V:2] A8 |]  
[V:3] F8 |]  
[V:4] F,,8 |]  



